X:3401
T:La Grande
O:england
C:Accordéon en Aubrac 16
M:3/4
L:1/4
K:C
G|c3|dcB|c3-|c3|def|g>ag|f2e|\
dec|d2e|1 d3-|d2:|2  d3-|d3||
|:def|g>ag|fed|g3|fed|\
cBc|1 d2f|ed2-|d3:|2 d2e|fed|c2B|c3-|c2||
L:1/8
|:g2|ag eg cg|ag eg ce|\
gf df Bd|1 c4:|2 c3||
|:e gf|dB dg ag|ec eg fe|\
fe dB dg|1 a2g4-|g3:|2 c4||


